X:1
T:Title
%%score { ( 1 4 ) | ( 2 3 ) }
L:1/8
Q:1/4=90
M:4/4
K:C
V:1 treble nm="Grand Piano"
V:4 treble 
V:2 bass 
V:3 bass 
V:1
 CCEE [DG][DG][Cc][Ec] | DDFF [FB]2 z2 | EE[FG][FG] [Ec][Ec][Ee][Ge] | [Fd][Fd]c[DB] [Ec]2 z2 | %4
w: Hilda~S.~Miller * * * * * * *||||
 CCEE [DG][DG][Cc][Ec] | DDFF [FB]2 z2 | E2 [FG][Ec] [Ge]2 [Fd]>[Fd] |[M:7/8] [Ec]2 [DB]2 [Ec]2 z | %8
w: ||||
[M:1/8] C |[M:4/4] E4 c4 | [Fc]>[Ac] [GB][FA] [EG]2 z E | G4 e4 | %12
w: ||||
[M:17/16] [^Ge]>[Ge][Ae]>[Ge][Ge]3/2[K:bass]F,E,D, |[M:4/4][K:treble] [Ge][Ee][Ae][Ge] dddd | %14
w: ||
 cc[GB][FA] [EG]2 z2 | [FA]2 [GB][Ac] e2 Ge | [Fd]4 z4 |] %17
w: |||
V:2
 [C,E,][C,E,][C,G,C][C,G,C] [C,G,][C,G,][A,,A,][A,,G,] | [D,F,][D,F,][D,A,D][D,A,D] [D,D]2 z2 | %2
 [E,G,][E,G,][D,G,][D,G,] [C,G,][C,G,][A,C][E,C] | [F,A,][D,A,][G,E][G,,G,] [C,G,]2 z2 | %4
 [C,E,][C,E,][C,G,C][C,G,C] [C,G,][C,G,][A,,A,][A,,G,] | [D,F,][D,F,][D,A,D][D,A,D] [D,D]2 z2 | %6
 [E,G,]2 [D,G,][C,G,] [C,C]2 [F,A,]>[F,A,] |[M:7/8] G,- G,3 z z2 |[M:1/8] z | %9
[M:4/4] z [C,G,] .[C,G,]2 z [C,G,][C,G,][C,G,] | [F,A,]>[F,A,] [F,B,][F,C] [C,C]2 z2 | %11
 z [C,G,] .[C,C]2 z [C,G,][C,C][C,C] |[M:17/16] [E,B,]>[E,B,][E,C]>[E,C][D,B,]3/2 z/ z/ z/ z/ z | %13
[M:4/4] [C,C][C,G,][C,C][E,C][K:treble] [G,CF][G,B,F][G,A,F][^G,B,F] | %14
 [A,CE][A,CA][K:bass][F,C][F,C] [C,C]2 z2 | [F,C]2 [F,C][F,C][K:treble] [G,CG]2 [G,E][G,CG] | %16
 z2 B,2 C,2 z2 |] %17
V:3
 x8 | x8 | x8 | x8 | x8 | x8 | x8 |[M:7/8] z2 G,,2 [C,G,]2 z |[M:1/8] x |[M:4/4] x8 | x8 | x8 | %12
[M:17/16] x17/2 |[M:4/4] x4[K:treble] x4 | x2[K:bass] x6 | x4[K:treble] x4 | [G,,G,]4 z4 |] %17
V:4
 x8 | x8 | x8 | x8 | x8 | x8 | x8 |[M:7/8] x7 |[M:1/8] x |[M:4/4] z CCG z EE[Ec] | x8 | %11
 z EEc z GG[Ge] |[M:17/16] x11/2[K:bass] x3 |[M:4/4][K:treble] x8 | x8 | x8 | C2 z2 [CEc]2 z2 |] %17

